X: 15488
T: Glenfinnan Midge Factory, The
R: reel
M: 4/4
K: Fmajor
A2 GE D2 A,G,|A,CGE DEFG|Addc Bffc|^caag f2 ec|
dafd cgec|d2 cA GECE|1 DEFG Addc|^caag fedc ]:|
[2 DEFG AddF|FddF E2 CE]||F2 CF A,CFA|B2 GB DGBG|
Addc Bffc|dggf e2 eA|dafd cgec|d2 cA GECE|
[1 DEFG AddF|FddF E2 CE:|2 DEFG Addc|^caag fedc||

